X:1
T:MorningFair -- Hornpipe
R:hornpipe
B:Cole's 1000 Fiddle Tunes
Z:Bob Puckette <bpuckette:msn.com> 2003-3-8
M:2/4
L:1/16
K:D
vfe|dAFA dfed|"4"ecAc egfe|fafd Bged|c2A2A2 (fe)|
dAFA dfed|ecAc egfe|fafd Bgec|d2d2d2:|
|:vfg|afdf .a2(gf)|gece .g2(fe)|fafd Bged|.c2.A2.A2 (fe)|
dAFA dfed|"4"ecAc egfe|fafd Bgec|d2d2d2:|
